X: 42983
T: Willie O'Connell's
R: jig
M: 6/8
K: Dmajor
edB A^GA|BGE DB,D|GFG A^GA|BA^G AB/c/d|
edB A2 A|BGE DB,/C/D|GFG A^GA|BGF G2:|
GBd e^de|dBG Ac/B/A|GBd edB|gdB Ac/B/A|
GB/c/d e2 d|e/f/ge dBA|G2 G A^GA|BGF G2:|

